X: 1971
T: The Wedding at Ballypallen
B: australian traditional tunes wiki
M:6/8
L:1/8
R: Jig
Q: 3/8=100
K:G
V:1 
"G"GGG ggg|"D"agf "G"ggg|bbb ggg|dBG "D"cBA|"G"GGG ggg|"D"agf "G"ggg|bbb ggg|"D"ddd Bcd|
"Em"ege ege|"C"cBc ABc|"D"ddd ded|"G"BdB G2D|GGG GBd|gag dBd|"C"cAB "D"cAF|"G"G3-G2D||
|"Variation""G"GBd ggg|"D"baf "G"g2g|bag f/g/fe|dBG "D"B/c/BA|"G"GGG ggg|"D"agf "G"g2g|bbb ggg|"D"dBG cBd|
"Em"eee ege|"C"cBc ABc|"D"ddd ded |"G"BdB G2D|"Em"GGG GBd|"G"gag dBd|"C"cAB cAF|"G"G6||
% abcbook-tune_id 6342d5be2df45b8a4c662dc0


% abcbook-boost 0
% abcbook-tablature 
% abcbook-transpose 
% abcbook-lastupdated 1665324491480
% abcbook-soundfonts 
% abcbook-repeats 1
% NFF Book 2015

